X:483
T:Polska # 483
T: efter Melker Andersson
M:3/4
L:1/16
K: G
Q: 110
|: gdgb gdgb gdgb | ggfg agfe e2d2 | d2ef (gf)ga gBcd
| (ec)AF F2G2 G4 :: (BG)Bd (BG)Bd (ed)cB | (AF)Ac (AF)Ac (dc)Bc
| (BG)Bd (BG)Bd (ed)cB | (AF)Ac (AF)Ac (dc)Bc| d2ef (gf)ga gBcd | (ec)AF F2G2 G4 :|

